X:280
T: Castle
M: 4/4
L: 1/8
S: Luke O'Malley vol 1
Z: B.Black
R: hornpipe
K: A
ED|CEAE CEAE|CEAc ecAc|dcBc defg|aecA BAFA |
CEAE CEAE|DFAF DFAF|EGBG EGBG|(3AGA cB A2 :|
cd|edcd eaga|(3fgf dc B2 (3ABc|dcBc dcde|\
(3fgf ed c2 (3Bcd |
eaga faga|eb^ab gb^ab|ec'bc' d'efg|(3aga c'b a2 :|
cd|ecAE CEAc|fdBG E2 (3ABc|dBGE B,EGB|cAEC A,2 (3Bcd |
edcd eaga|fdcd fb^ab|ge^de =dBGB|(3AGA cB A2 :|
